X:64
T:Kenlock of Kenlock. GS.064
T:Kinloch of Kinloch,aka. GS.064
T:Blow the Wind Southerly,aka. GS.064
M:6/8
L:1/8
Q:3/8=45
S:George Spencer m/s, Leeds,1831
R:.Air
O:England
A:Leeds
N:1 This note is dotted and shouldnâ€™t b
H:1831
Z:vmp.Cherri Graebe
K:D major
f>ed AFA | BGB AFA | f>ed AFA | Bdc â€ crâ€ d3 :|!
|: f2f e2e | ded cBA | f2f e2e | ca^g a3 |!
â€ 1â€³ b2b â€ 1â€³a2a | gfg f3 | fed Bgb | a2c â€ crâ€d3 ğŸ˜

